X:1
T: You'll go a Hunting no more
C:
R:Jig
Q:180
K:G
M:6/8
L:1/16
B2|:d2B2B2 B2G2G2|D2G2G2 G2A2B2|c2e2e2 d2B2G2|F2A2A2 A2B2c2|
d2B2B2 B2G2G2|D2G2G2 G2A2B2|c2e2e2 d2c2A2|1B2G2G2 G4B2:|2B2G2G2 G4Bd|
|:g2f2e2 d2B2A2|B2e2e2 e4f2|g2f2g2 e2a2g2|f2d2d2 d2e2f2|
g2f2e2 d2B2A2|B2e2e2 e4f2|g2f2g2 a2g2a2|1b2g2g2 g4ef:|2b2g2g2 g4||
